app/assets/img/cat-health.svg

<svg height="60" viewBox="0 0 60 60" width="60" xmlns="http://www.w3.org/2000/svg"><path d="m73.3333333 20h-46.6666666c-3.6666667 0-6.6333334 3-6.6333334 6.6666667l-.0333333 46.6666666c0 3.6666667 3 6.6666667 6.6666667 6.6666667h46.6666666c3.6666667 0 6.6666667-3 6.6666667-6.6666667v-46.6666666c0-3.6666667-3-6.6666667-6.6666667-6.6666667zm-3.3333333 36.6666667h-13.3333333v13.3333333h-13.3333334v-13.3333333h-13.3333333v-13.3333334h13.3333333v-13.3333333h13.3333334v13.3333333h13.3333333z" transform="translate(-20 -20)"/></svg>

<?xml version="1.0" encoding="UTF-8"?>
<svg width="60px" height="60px" viewBox="0 0 60 60" version="1.1" xmlns="http://www.w3.org/2000/svg" xmlns:xlink="http://www.w3.org/1999/xlink">
    <!-- Generator: Sketch 50.2 (55047) - http://www.bohemiancoding.com/sketch -->
    <title>cat-health</title>
    <desc>Created with Sketch.</desc>
    <defs>
        <path d="M73.3333333,20 L26.6666667,20 C23,20 20.0333333,23 20.0333333,26.6666667 L20,73.3333333 C20,77 23,80 26.6666667,80 L73.3333333,80 C77,80 80,77 80,73.3333333 L80,26.6666667 C80,23 77,20 73.3333333,20 Z M70,56.6666667 L56.6666667,56.6666667 L56.6666667,70 L43.3333333,70 L43.3333333,56.6666667 L30,56.6666667 L30,43.3333333 L43.3333333,43.3333333 L43.3333333,30 L56.6666667,30 L56.6666667,43.3333333 L70,43.3333333 L70,56.6666667 Z" id="path-1"></path>
    </defs>
    <g id="Page-1" stroke="none" stroke-width="1" fill="none" fill-rule="evenodd">
        <g id="askdarcel/icon/category/health" transform="translate(-20.000000, -20.000000)">
            <mask id="mask-2" fill="white">
                <use xlink:href="#path-1"></use>
            </mask>
            <use id="cat-health" fill="#000000" fill-rule="nonzero" xlink:href="#path-1"></use>
        </g>
    </g>
</svg>
